public/avatar/hat/223.svg

<svg xmlns:xlink="http://www.w3.org/1999/xlink" height="92.9" width="100.7" xmlns="http://www.w3.org/2000/svg"><use height="26.3" transform="translate(19.35 39.35)" width="38.8" xlink:href="#a"/><defs><g id="a" fill-rule="evenodd"><path d="M4.45-7.05q.3 0 .45.25l.1.25-.05.25-.85 2.05q1.1-1.3 4.75-2.95Q12.6-8.85 14-10.3l.35-.1.35.2q2.35 2.35 2.35 7.1 0 2.6-.85 5.45 1.65-2.2 1.9-4.6l.4-.45q.35-.05.55.3L19.5.25q0 3.1-1.8 6.7l.3-.25.5-.2.4.4q.25.8-.85 2.9-1.25 2.5-3.55 4.5l-.55.1-.85-.9Q5.95 4.95-.8 5.35q-6.95.45-13.2 10-.25.4-.7.15-5.1-3.25-4.55-7.2l2.9.15Q-18.9 6-18.9 1.9q0-2.65 1.3-4.65l2.3.85q-.95-2.1-.95-4.1 0-1.75.75-3.3l.4-.25.45.15q1.7 1.95 5.25 3.45Q-6.8-4.9-4.65-3.7q-.7-1.45-1.65-2.1l-.25-.4v-.1l.45-.4q2.4-.4 5.35 3.05 1.95-2.95 5.2-3.4" fill="#4f0000" transform="translate(19.3 10.4)"/><path d="M15.7-5.3q1 4.6-1.55 10.2 3.5-1.15 4.35-5.3.15 2.65-1.1 5.65-.95 2.25-1.85 3.2 1.8 0 2.15-.4l-.65 1.75q-.75 1.5-2.85 3.3Q10.25 7.8 5 5.45-5.4.75-14.4 14.2q-1.3-.45-2.4-2.05-1.15-1.55-1.25-2.85l3.25-.15q-1.55-1.6-2.5-4.75-1.1-3.8.35-6.15l3.05 1.5-1.05-3.4q-.7-2.75.05-4.5Q-12.1-5.8-9.85-5q3 1.1 6.25 3.2.3-2.25-1.15-3.5 1.15-.15 2.55 1.25 1.25 1.25 1.35 2l1.3-1.7q1.6-1.75 3.15-2-.3.55-.4 2.05-.1 1.45.1 1.7 1.95-2.45 5.55-4 4.3-1.9 5.35-2.75 1 1.15 1.5 3.45" fill="#fc0" transform="translate(19.3 10.4)"/><path d="M2.6 4.6.35 4.25h-.4Q1.35.8 1.35-1.8 2.7-.2 2.6 4.6m-6.75.3q.5-1 .5-1.7l.55 1.45-.85.25h-.2" fill="#ca7017" transform="translate(19.3 10.4)"/><path d="m-1.45 4.3-1.65.35-.55-1.45q0 .7-.5 1.7l-5.15.25q-1.7 2.9-2.35 5.35l-2.75 3.7q-1.3-.45-2.4-2.05-1.15-1.55-1.25-2.85l3.25-.15q-3.1-3.25-2.95-8 2.8 3.05 6.1 3.05-1.65-2.45-1-5 3.45 2.95 6.2 2.75-.8-2.35-.7-2.85 2 .65 5.7 5.2" fill="#ca7017" transform="translate(19.3 10.4)"/><path d="M-11.65 10.5Q-11 8.05-9.3 5.15l5.35-.25q-3.95 1.3-7.7 5.6m15.3-5.6 1.1-.1.5.75-1.6-.65" fill="#ca7017" transform="translate(19.3 10.4)"/><path d="m5.25 5.55-.5-.75-1.1.1-.05-.05Q7.2.9 8.35-3.8 10.15-1.2 9.6 2q4.7-3.65 5.95-8 1.4 4.85-1.4 10.9 3.5-1.15 4.35-5.3.15 2.65-1.1 5.65-.95 2.25-1.85 3.2 1.8 0 2.15-.4l-.65 1.75q-.75 1.5-2.85 3.3Q10.35 8 5.25 5.55" fill="#ca7017" transform="translate(19.3 10.4)"/><path d="m3.1.55.5.2L5.3 2.8l.05-.15.5-.95q.1-.25.35-.25Q7.95 1 10.1 3.6q4.05 5.2 2.05 9.35-.2.4-.5.3l-.45-.4q-.2-1.55-1.85-3.8.4 1.75.4 3.6L9.7 13.7l-.3.45-.5-.1q-2.8-2.4-4.7-5.9l.25 4.25v.05l-.25.45h-.5q-2.1-1.35-4-5.6-.65 3.45-.65 5.85v.55l-.3.45-.6-.15q-1.7-2-2.75-6.85-2.3 2.4-4.4 5.65-.15.35-.55.25l-.35-.45-.05-.25.5-2.6q-1.5 2.85-2.3 5.8-.1.45-.5.35-.45 0-.45-.4-.5-5.05.9-9.35 1.15-3.35 2.3-3.95l.3-.05q1.35.1 2.75 1.05Q-5 1.2-3.85.8l.55.1 2.65 1.9Q1.7.85 3.1.55" fill="#4f0000" transform="translate(19.3 10.4)"/><path d="M10.2 5.55q1.85 3 1.5 5.7-.75-2.5-3.55-4.25.55 2.65.6 5.5Q6.3 10.4 4.7 7.85l-.9-1.8q-.9 1.7-.4 5.3-2.65-2.4-3.8-6.3-.3.25-.85 2.65-.65 2.6-.65 4.4-1.3-1.5-1.95-4.15l-.4-2.35q-2.8 2.6-4.3 4.9-.35-2.85 1.2-4.15-3.05 1.55-4.6 7.4.05-4.5 1.2-7.75.9-2.45 1.7-2.85 1.7.2 2.8 1.2.45-.95 2.6-2.5 1.75 1 3.05 2.1l1.55-1.2q1.45-.95 2.1-1.1 2.2 2.85 2.3 2.55L6.6 2.4q1.85.2 3.6 3.15" fill="#fc0" transform="translate(19.3 10.4)"/><path d="M-11.9 12.05q1-5.7 4.5-6.45l.05.75q-3 1.55-4.55 7.25l-.05-.5.05-1.05m4.25-2.85q.55-2.8 3.15-3.95l.25.35q-2.35 2.15-3.4 3.6m5.7 2.85q-.75-1.3-.8-3.9 0-2.9 1.1-4.1l1.2 1.05q-1.1 2.45-1.5 6.95m13.6-.8Q10.9 9 8.15 7l.55 4.05q-1-1.9-3.95-6.25l3.2 1.3q.8-.9.95-2.4 3.25 3.8 2.75 7.55m-8.35-.6Q2.2 9.3 1.85 7.3q-.3-1.95.35-3l1.6 1.8-.5 4.55" fill="#ca7017" transform="translate(19.3 10.4)"/><path d="m6.7 2.8.5 1.6.35-1.15-.1 2.1-1-1.45-1 .9L4.1 3.75l.15 2Q4 6 2.15 3.4L1.1 6.45-.05 4l1.1.6.8-2.2 1.7 1.85-.3-1.9 2.1 2.15L6.7 2.8M-3.4 4.95l1.5-1.2-1.6 3.1-.45-3-1.05.8-1.7 1.75-.55-1.35-.85.3-1.55.8 1.05-1.7-1.95 1.65 1.6-2.8-.4 1.15 1.35-.9-.15 1.05L-7 4.1q.1-.05.5 1.45l1.15-1.25q2.1-1.45 2.2-1.4l-.25 2.05M3.5-1.2l2.6-2.55q1.4-1.05 3.05-1.9l2.25-.9q-.45.65-.35 1.4L13.5-7.6l-.55 4.5Q14-4.35 14.2-6.6q.45.7-.05 2.3-.3 1.15-2.2 3.05 1.15-2.35.45-4.3L10.45-3.6q-.3-1.4-.25-1.9-2.7.9-6.7 4.3m-14.15-.95q-.9-.35-2.4-1.65.2 1.5.75 2.65-1.5-.85-2.2-2.3-.9-2.05-.4-2.75.05.75 1.05 2.25l-.3-2.8q1.3 2.35 2.5 3.1l-.75-2.05 2.55 1.45 2.75 1.3 2.2 1.35q-3.55-1.2-5.85-2.45l.1 1.9m9.5.25L-2.4-3.35q.15.75-.25 2.2.15-1.55-1.05-3.8Q-1.45-3.5-1.15-1.9M.7-3.15l-.95.85q.2-.65 1.3-1.75Q2.1-5.1 2.8-5.35 1.75-4.3.95-2.9l1.9-1.5-1.8 2.05L.2-1l.5-2.15" fill="#fff" transform="translate(19.3 10.4)"/></g></defs></svg>

<?xml version="1.0" encoding="UTF-8" standalone="no"?>
<svg xmlns:xlink="http://www.w3.org/1999/xlink" height="92.9px" width="100.7px" xmlns="http://www.w3.org/2000/svg">
  <g transform="matrix(1.0, 0.0, 0.0, 1.0, 38.65, 49.75)">
    <use height="26.3" transform="matrix(1.0, 0.0, 0.0, 1.0, -19.3, -10.4)" width="38.8" xlink:href="#shape0"/>
  </g>
  <defs>
    <g id="shape0" transform="matrix(1.0, 0.0, 0.0, 1.0, 19.3, 10.4)">
      <path d="M4.45 -7.05 Q4.75 -7.05 4.9 -6.8 L5.0 -6.55 4.95 -6.3 4.1 -4.25 Q5.2 -5.55 8.85 -7.2 12.6 -8.85 14.0 -10.3 L14.35 -10.4 14.7 -10.2 Q17.05 -7.85 17.05 -3.1 17.05 -0.5 16.2 2.35 17.85 0.15 18.1 -2.25 L18.5 -2.7 Q18.85 -2.75 19.05 -2.4 L19.5 0.25 Q19.5 3.35 17.7 6.95 L18.0 6.7 18.5 6.5 18.9 6.9 Q19.15 7.7 18.05 9.8 16.8 12.3 14.5 14.3 L13.95 14.4 13.1 13.5 Q5.95 4.95 -0.8 5.35 -7.75 5.8 -14.0 15.35 -14.25 15.75 -14.7 15.5 -19.8 12.25 -19.25 8.3 L-16.35 8.45 Q-18.9 6.0 -18.9 1.9 -18.9 -0.75 -17.6 -2.75 L-15.3 -1.9 Q-16.25 -4.0 -16.25 -6.0 -16.25 -7.75 -15.5 -9.3 L-15.1 -9.55 -14.65 -9.4 Q-12.95 -7.45 -9.4 -5.95 -6.8 -4.9 -4.65 -3.7 -5.35 -5.15 -6.3 -5.8 L-6.55 -6.2 -6.55 -6.3 -6.1 -6.7 Q-3.7 -7.1 -0.75 -3.65 1.2 -6.6 4.45 -7.05" fill="#4f0000" fill-rule="evenodd" stroke="none"/>
      <path d="M15.7 -5.3 Q16.7 -0.7 14.15 4.9 17.65 3.75 18.5 -0.4 18.65 2.25 17.4 5.25 16.45 7.5 15.55 8.45 17.35 8.45 17.7 8.05 L17.05 9.8 Q16.3 11.3 14.2 13.1 10.25 7.8 5.0 5.45 -5.4 0.75 -14.4 14.2 -15.7 13.75 -16.8 12.15 -17.95 10.6 -18.05 9.3 L-14.8 9.15 Q-16.35 7.55 -17.3 4.4 -18.4 0.6 -16.95 -1.75 L-13.9 -0.25 -14.95 -3.65 Q-15.65 -6.4 -14.9 -8.15 -12.1 -5.8 -9.85 -5.0 -6.85 -3.9 -3.6 -1.8 -3.3 -4.05 -4.75 -5.3 -3.6 -5.45 -2.2 -4.05 -0.95 -2.8 -0.85 -2.05 L0.45 -3.75 Q2.05 -5.5 3.6 -5.75 3.3 -5.2 3.2 -3.7 3.1 -2.25 3.3 -2.0 5.25 -4.45 8.85 -6.0 13.15 -7.9 14.2 -8.75 15.2 -7.6 15.7 -5.3" fill="#ffcc00" fill-rule="evenodd" stroke="none"/>
      <path d="M2.6 4.6 L0.35 4.25 -0.05 4.25 Q1.35 0.8 1.35 -1.8 2.7 -0.2 2.6 4.6" fill="#ca7017" fill-rule="evenodd" stroke="none"/>
      <path d="M-4.15 4.9 Q-3.65 3.9 -3.65 3.2 L-3.1 4.65 -3.95 4.9 -4.15 4.9" fill="#ca7017" fill-rule="evenodd" stroke="none"/>
      <path d="M-1.45 4.3 L-3.1 4.65 -3.65 3.2 Q-3.65 3.9 -4.15 4.9 L-9.3 5.15 Q-11.0 8.05 -11.65 10.5 L-14.4 14.2 Q-15.7 13.75 -16.8 12.15 -17.95 10.6 -18.05 9.3 L-14.8 9.15 Q-17.9 5.9 -17.75 1.15 -14.95 4.2 -11.65 4.2 -13.3 1.75 -12.65 -0.8 -9.2 2.15 -6.45 1.95 -7.25 -0.4 -7.15 -0.9 -5.15 -0.25 -1.45 4.3" fill="#ca7017" fill-rule="evenodd" stroke="none"/>
      <path d="M-11.65 10.5 Q-11.0 8.05 -9.3 5.15 L-3.95 4.9 Q-7.9 6.2 -11.65 10.5" fill="#ca7017" fill-rule="evenodd" stroke="none"/>
      <path d="M3.65 4.9 L4.75 4.8 5.25 5.55 3.65 4.9" fill="#ca7017" fill-rule="evenodd" stroke="none"/>
      <path d="M5.25 5.55 L4.75 4.8 3.65 4.9 3.6 4.85 Q7.2 0.9 8.35 -3.8 10.15 -1.2 9.6 2.0 14.3 -1.65 15.55 -6.0 16.95 -1.15 14.15 4.9 17.65 3.75 18.5 -0.4 18.65 2.25 17.4 5.25 16.45 7.5 15.55 8.45 17.35 8.45 17.7 8.05 L17.05 9.8 Q16.3 11.3 14.2 13.1 10.35 8.0 5.25 5.55" fill="#ca7017" fill-rule="evenodd" stroke="none"/>
      <path d="M3.1 0.55 L3.6 0.75 5.3 2.8 5.35 2.65 5.85 1.7 Q5.95 1.45 6.2 1.45 7.95 1.0 10.1 3.6 14.15 8.8 12.15 12.95 11.95 13.35 11.65 13.25 L11.2 12.85 Q11.0 11.3 9.35 9.05 9.75 10.8 9.75 12.65 L9.7 13.7 9.4 14.15 8.9 14.05 Q6.1 11.65 4.2 8.15 L4.45 12.4 4.45 12.45 4.2 12.9 3.7 12.9 Q1.6 11.55 -0.3 7.3 -0.95 10.75 -0.95 13.15 L-0.95 13.7 -1.25 14.15 -1.85 14.0 Q-3.55 12.0 -4.6 7.15 -6.9 9.55 -9.0 12.8 -9.15 13.15 -9.55 13.05 L-9.9 12.6 -9.95 12.35 -9.45 9.75 Q-10.95 12.6 -11.75 15.55 -11.85 16.0 -12.25 15.9 -12.7 15.9 -12.7 15.5 -13.2 10.45 -11.8 6.15 -10.65 2.8 -9.5 2.2 L-9.2 2.15 Q-7.85 2.25 -6.45 3.2 -5.0 1.2 -3.85 0.8 L-3.3 0.9 -0.65 2.8 Q1.7 0.85 3.1 0.55" fill="#4f0000" fill-rule="evenodd" stroke="none"/>
      <path d="M10.2 5.55 Q12.05 8.55 11.7 11.25 10.95 8.75 8.15 7.0 8.7 9.65 8.75 12.5 6.3 10.4 4.7 7.85 L3.8 6.05 Q2.9 7.75 3.4 11.35 0.75 8.95 -0.4 5.05 -0.7 5.3 -1.25 7.7 -1.9 10.3 -1.9 12.1 -3.2 10.6 -3.85 7.95 L-4.25 5.6 Q-7.05 8.2 -8.55 10.5 -8.9 7.65 -7.35 6.35 -10.4 7.9 -11.95 13.75 -11.9 9.25 -10.75 6.0 -9.85 3.55 -9.05 3.15 -7.35 3.35 -6.25 4.35 -5.8 3.4 -3.65 1.85 -1.9 2.85 -0.6 3.95 L0.95 2.75 Q2.4 1.8 3.05 1.65 5.25 4.5 5.35 4.2 L6.6 2.4 Q8.45 2.6 10.2 5.55" fill="#ffcc00" fill-rule="evenodd" stroke="none"/>
      <path d="M-11.9 12.05 Q-10.9 6.35 -7.4 5.6 L-7.35 6.35 Q-10.35 7.9 -11.9 13.6 L-11.95 13.1 -11.9 12.05" fill="#ca7017" fill-rule="evenodd" stroke="none"/>
      <path d="M-7.65 9.2 Q-7.1 6.4 -4.5 5.25 L-4.25 5.6 Q-6.6 7.75 -7.65 9.2" fill="#ca7017" fill-rule="evenodd" stroke="none"/>
      <path d="M-1.95 12.05 Q-2.7 10.75 -2.75 8.15 -2.75 5.25 -1.65 4.05 L-0.45 5.1 Q-1.55 7.55 -1.95 12.05" fill="#ca7017" fill-rule="evenodd" stroke="none"/>
      <path d="M11.65 11.25 Q10.9 9.0 8.15 7.0 L8.7 11.05 Q7.7 9.15 4.75 4.8 L7.95 6.1 Q8.75 5.2 8.9 3.7 12.15 7.5 11.65 11.25" fill="#ca7017" fill-rule="evenodd" stroke="none"/>
      <path d="M3.3 10.65 Q2.2 9.3 1.85 7.3 1.55 5.35 2.2 4.3 L3.8 6.1 3.3 10.65" fill="#ca7017" fill-rule="evenodd" stroke="none"/>
      <path d="M6.7 2.8 L7.2 4.4 7.55 3.25 7.45 5.35 6.45 3.9 5.45 4.8 4.1 3.75 4.25 5.75 Q4.0 6.0 2.15 3.4 L1.1 6.45 -0.05 4.0 1.05 4.6 1.85 2.4 3.55 4.25 3.25 2.35 5.35 4.5 6.7 2.8" fill="#ffffff" fill-rule="evenodd" stroke="none"/>
      <path d="M-3.4 4.95 L-1.9 3.75 -3.5 6.85 -3.95 3.85 -5.0 4.65 -6.7 6.4 -7.25 5.05 -8.1 5.35 -9.65 6.15 -8.6 4.45 -10.55 6.1 -8.95 3.3 -9.35 4.45 -8.0 3.55 -8.15 4.6 -7.0 4.1 Q-6.9 4.05 -6.5 5.55 L-5.35 4.3 Q-3.25 2.85 -3.15 2.9 L-3.4 4.95" fill="#ffffff" fill-rule="evenodd" stroke="none"/>
      <path d="M3.5 -1.2 L6.1 -3.75 Q7.5 -4.8 9.15 -5.65 L11.4 -6.55 Q10.95 -5.9 11.05 -5.15 L13.5 -7.6 12.95 -3.1 Q14.0 -4.35 14.2 -6.6 14.65 -5.9 14.15 -4.3 13.85 -3.15 11.95 -1.25 13.1 -3.6 12.4 -5.55 L10.45 -3.6 Q10.15 -5.0 10.2 -5.5 7.5 -4.6 3.5 -1.2" fill="#ffffff" fill-rule="evenodd" stroke="none"/>
      <path d="M-10.65 -2.15 Q-11.55 -2.5 -13.05 -3.8 -12.85 -2.3 -12.3 -1.15 -13.8 -2.0 -14.5 -3.45 -15.4 -5.5 -14.9 -6.2 -14.85 -5.45 -13.85 -3.95 L-14.15 -6.75 Q-12.85 -4.4 -11.65 -3.65 L-12.4 -5.7 -9.85 -4.25 -7.1 -2.95 -4.9 -1.6 Q-8.45 -2.8 -10.75 -4.05 L-10.65 -2.15" fill="#ffffff" fill-rule="evenodd" stroke="none"/>
      <path d="M-1.15 -1.9 L-2.4 -3.35 Q-2.25 -2.6 -2.65 -1.15 -2.5 -2.7 -3.7 -4.95 -1.45 -3.5 -1.15 -1.9" fill="#ffffff" fill-rule="evenodd" stroke="none"/>
      <path d="M0.7 -3.15 L-0.25 -2.3 Q-0.05 -2.95 1.05 -4.05 2.1 -5.1 2.8 -5.35 1.75 -4.3 0.95 -2.9 L2.85 -4.4 1.05 -2.35 0.2 -1.0 0.7 -3.15" fill="#ffffff" fill-rule="evenodd" stroke="none"/>
    </g>
  </defs>
</svg>
